icon-themes/sifr_svg/cmd/sc_polygon_diagonal.svg

<svg viewBox="0 0 16 16" xmlns="http://www.w3.org/2000/svg"><g fill="#555753"><path d="m2 1v1h-1v2h1v8h-1v2h1v1h2v-1h8v1h2v-1h1v-2h-1v-3h1v-2h-1v-1h-2v1h-4v-3h1v-2h-1v-1h-2v1h-2v-1zm2 3h2v5h6v3h-8z"/><path d="m4 4v8h8v-3h-6v-5z" opacity=".35"/></g></svg>

<svg xmlns="http://www.w3.org/2000/svg" viewBox="0 0 16 16">
  <path
     style="fill:#555753"
     d="M 2,1 V 2 H 1 v 2 h 1 v 8 H 1 v 2 h 1 v 1 h 2 v -1 h 8 v 1 h 2 v -1 h 1 V 12 H 14 V 9 h 1 V 7 H 14 V 6 H 12 V 7 H 8 V 4 H 9 V 2 H 8 V 1 H 6 V 2 H 4 V 1 Z m 2,3 h 2 v 5 h 6 v 3 H 4 Z"
     />
  <path
     style="opacity:0.35;fill:#555753"
     d="M 4 4 L 4 12 L 12 12 L 12 9 L 6 9 L 6 4 L 4 4 z "
     />
</svg>
